X:11
T:Mrs. Rose Feughside's Reel
S:Petrie's Third Collection of Strathspey Reels and Country Dances &c.
Z:Steve Wyrick , 7/30/05
N:Petrie's Third Collection, page 6
L:1/8
M:C
R:Reel
K:C
f|c2Gc ECG_B|AFGE Dd-df|ecBd cGEC|FAGE Gcc:|f|ecgc afge|d_BfB dfBf|
ecgc afge|(B/c/d) Gf eccf|ecgc afge|d_BfB dfBg|ecBd cGEc|AFDf ecc|]
